src/icons/notification-off.svg

<svg xmlns="http://www.w3.org/2000/svg" width="512" height="512" viewBox="0 0 512 512">
    <path d="M424.7 117.5c1 1.2 1.3 2.4 1.3 3.9-.1 1.6-.6 2.8-1.8 3.8L108.9 398.4c-1.2 1-2.4 1.3-3.9 1.2-1.6-.1-2.7-.7-3.6-1.8l-14.1-16.2c-1-1.2-1.3-2.4-1.3-3.9.1-1.6.6-2.7 1.8-3.6l31.3-27.1c-2.1-3.5-3.2-7.2-3.2-11.2 5.6-4.7 10.7-9.7 15.3-14.9 4.6-5.2 9.3-11.8 14.3-20.1s9.1-17.2 12.5-26.7c3.4-9.6 6.3-21.1 8.4-34.6 2.1-13.6 3.3-28.2 3.3-43.8 0-17.1 6.6-32.8 19.8-47.6 13.2-14.7 30.3-23.5 51.6-26.7-1-2.1-1.3-4.4-1.3-6.6 0-4.5 1.6-8.3 4.7-11.5 3.2-3.2 7-4.7 11.5-4.7s8.3 1.6 11.5 4.7c3.2 3.2 4.7 7 4.7 11.5 0 2.2-.4 4.5-1.3 6.6 13.9 2 26.2 6.7 36.9 13.9s18.9 16 24.9 26.6l70.4-61.3c1.2-1 2.4-1.3 3.9-1.2 1.6.1 2.7.7 3.6 1.8l14.1 16.3zM256 386.9c1.8 0 2.7-1 2.7-2.7 0-1.8-1-2.7-2.7-2.7-6.7 0-12.3-2.4-17.1-7.1-4.8-4.8-7.1-10.4-7.1-17.1 0-1.8-1-2.7-2.7-2.7-1.8 0-2.7 1-2.7 2.7 0 8.2 2.9 15.2 8.7 20.9 5.7 5.9 12.7 8.7 20.9 8.7zm90-144.8c6.9 39.9 23.6 71.2 50.3 93.6 0 5.8-2.1 10.9-6.4 15.2-4.3 4.3-9.2 6.4-15.2 6.4h-75.4c0 11.9-4.1 22.1-12.6 30.5-8.4 8.4-18.6 12.6-30.5 12.6-11.9 0-22.1-4.1-30.4-12.5-8.4-8.4-12.6-18.5-12.6-30.4L346 242.1z"/>
</svg>

<?xml version="1.0" encoding="UTF-8"?>
<svg width="512px" height="512px" viewBox="0 0 512 512" version="1.1" xmlns="http://www.w3.org/2000/svg" xmlns:xlink="http://www.w3.org/1999/xlink">
    <!-- Generator: Sketch 62 (91390) - https://sketch.com -->
    <title>notification-off</title>
    <desc>Created with Sketch.</desc>
    <g id="notification-off" stroke="none" stroke-width="1" fill="none" fill-rule="evenodd">
        <path d="M424.7,117.5 C425.7,118.7 426,119.9 426,121.4 C425.9,123 425.4,124.2 424.2,125.2 L108.9,398.4 C107.7,399.4 106.5,399.7 105,399.6 C103.4,399.5 102.3,398.9 101.4,397.8 L87.3,381.6 C86.3,380.4 86,379.2 86,377.7 C86.1,376.1 86.6,375 87.8,374.1 L119.1,347 C117,343.5 115.9,339.8 115.9,335.8 C121.5,331.1 126.6,326.1 131.2,320.9 C135.8,315.7 140.5,309.1 145.5,300.8 C150.5,292.5 154.6,283.6 158,274.1 C161.4,264.5 164.3,253 166.4,239.5 C168.5,225.9 169.7,211.3 169.7,195.7 C169.7,178.6 176.3,162.9 189.5,148.1 C202.7,133.4 219.8,124.6 241.1,121.4 C240.1,119.3 239.8,117 239.8,114.8 C239.8,110.3 241.4,106.5 244.5,103.3 C247.7,100.1 251.5,98.6 256,98.6 C260.5,98.6 264.3,100.2 267.5,103.3 C270.7,106.5 272.2,110.3 272.2,114.8 C272.2,117 271.8,119.3 270.9,121.4 C284.8,123.4 297.1,128.1 307.8,135.3 C318.5,142.5 326.7,151.3 332.7,161.9 L403.1,100.6 C404.3,99.6 405.5,99.3 407,99.4 C408.6,99.5 409.7,100.1 410.6,101.2 L424.7,117.5 L424.7,117.5 Z M256,386.9 C257.8,386.9 258.7,385.9 258.7,384.2 C258.7,382.4 257.7,381.5 256,381.5 C249.3,381.5 243.7,379.1 238.9,374.4 C234.1,369.6 231.8,364 231.8,357.3 C231.8,355.5 230.8,354.6 229.1,354.6 C227.3,354.6 226.4,355.6 226.4,357.3 C226.4,365.5 229.3,372.5 235.1,378.2 C240.8,384.1 247.8,386.9 256,386.9 Z M346,242.1 C352.9,282 369.6,313.3 396.3,335.7 C396.3,341.5 394.2,346.6 389.9,350.9 C385.6,355.2 380.7,357.3 374.7,357.3 L299.3,357.3 C299.3,369.2 295.2,379.4 286.7,387.8 C278.3,396.2 268.1,400.4 256.2,400.4 C244.3,400.4 234.1,396.3 225.8,387.9 C217.4,379.5 213.2,369.4 213.2,357.5 L346,242.1 Z" id="Shape" fill="#000000" fill-rule="nonzero"></path>
    </g>
</svg>
